X:1
T:Title
%%score { ( 1 3 ) | ( 2 4 ) }
L:1/8
M:3/2
K:D
V:1 treble nm="Grand Piano"
V:3 treble 
V:2 bass 
V:4 bass 
V:1
 z4 z4[Q:1/4=236] [DA]4 | [A,A]4- [A,DA]4 [A,EA]4 | E4 z4 [Fd]4 | [Gc]8 [EB]4 | [FA]8 [FA]4 | %5
 B4 c4 d4 | d4 B4 [B,EG]4 | [DF]12 |[M:4/4] [CE]8 |[M:2/4] [CEA]4 | %10
[M:6/4] [A,A]4- [A,DA]2- [A,D-A]>D [A,EA]4 | E4 D2- D2 d4 | c6- c2 B4 | A6- A2 D4 | G4 A2- A2 B4 | %15
 .D12[K:bass] | [G,CE]12- |[M:4/4] [G,CE]2 z2 z4 |] %18
V:2
 z4 z4 [D,F,]4 | A,,4 B,,4 C,4 | z4 D4 [D,A,]4 | [E,A,]8 [G,C]4 | [F,D]8 [D,=C]4 | %5
 [B,G]4 [A,E]4[K:bass] [F,A,D]4 | [G,B,D]8 E,4 | A,12- |[M:4/4] A,8 |[M:2/4] A,,4 | %10
[M:6/4] A,,4 B,,2- B,,2 C,4 | D,6- D,2 [F,A,D]4 | [E,A,E]6- [E,A,E]2 [^G,DE]4 | %13
 [A,CE]6- [A,CE]2 [D,=C]4 | D4- [F,A,D]2- [F,-A,-D]>[F,A,] [G,D]4 | %15
 z4[K:treble] A2- A2[K:bass] A,,4 | z12 |[M:4/4] D,8 |] %18
V:3
 x12 | C4 z4 z4 | [A,F]8 z4 | x12 | x12 | x12 | x12 | x12 |[M:4/4] x8 |[M:2/4] x4 |[M:6/4] .C6 z6 | %11
 .[A,F]12 | x12 | x12 | x12 | .B6 z2[K:bass] [E,A,C]4 | x12 |[M:4/4] [F,D]8 |] %18
V:4
 x12 | x12 | D,8 z4 | x12 | x12 | G,8[K:bass] z4 | x12 | x12 |[M:4/4] A,,8 |[M:2/4] x4 | %10
[M:6/4] x12 | x12 | x12 | x12 | .[G,B,]6 z6 | .[A,,F,]12[K:treble][K:bass] | A,,12- | %17
[M:4/4] A,,2 z2 z4 |] %18

